X: 1
T: Drowsy Maggie (Donegal Setting)
M: 4/4
L: 1/8
R: reel
K: Edor
~E3d cABE|~E2BE FADF|~E3d cABc|1 dfec dAFD:|2 dfec dAFA||
defe dcBd|(3cBA eA ceAc|defe dcBc|def^g aecA|
defe dcBd|(3cBA eA ceAe|faec dcBa|^gbeg aecA||
